X:1
T: Zephyrs and Flora
N:
C:
S:
A:
O:
R:
M:2/2
K:G
I:speed 232
%W: A
% voice 1 (1 lines, 29 notes)
K:G
M:2/2
L:1/16
d4 ||B4 |G4 |B4 |d4 |g12 |a4 |b4 |g4 |a4 |f4 |g2 f2 |g2 a2 |g4 |d4 |B4 |G4 |B4 |d4 |g12 |a4 |b4 |g4 |a4 |f4 |g12 |d4 |
%W:
% voice 1 (1 lines, 28 notes)
B4 |G4 |B4 |d4 |g12 |a4 |b4 |g4 |a4 |f4 |g2 f2 |g2 a2 |g4 |d4 |B4 |G4 |B4 |d4 |g12 |a4 |b4 |g4 |a4 |f4 |g12 |d4 |
%W: B
% voice 1 (1 lines, 44 notes)
B2 c2 |B2 c2 |d2 c2 |d2 e2 |B4 |G4 |G4 |G4 |c2 d2 |c2 d2 |e2 d2 |e2 =f2 |c4 |A4 |A4 |A4 |f2 g2 |f2 g2 |a2 g2 |a2 b2 |g4 |d4 |d4 |c4 |B2 A2 |G2 B2 |A4 |F4 |G12 |d4 |
%W:
% voice 1 (1 lines, 43 notes)
B2 c2 |B2 c2 |d2 c2 |d2 e2 |B4 |G4 |G4 |G4 |c2 d2 |c2 d2 |e2 d2 |e2 =f2 |c4 |A4 |A4 |A4 |f2 g2 |f2 g2 |a2 g2 |a2 b2 |g4 |d4 |d4 |c4 |B2 A2 |G2 B2 |A4 |F4 |G12 |||
%W: A
% voice 1 (1 lines, 29 notes)
K:Gm
d4 ||B4 |G4 |B4 |d4 |g12 |a4 |b4 |g4 |a4 |^f4 |g2 ^f2 |g2 a2 |g4 |d4 |B4 |G4 |B4 |d4 |g12 |a4 |b4 |g4 |a4 |^f4 |g12 |d4 |
%W:
% voice 1 (1 lines, 28 notes)
B4 |G4 |B4 |d4 |g12 |a4 |b4 |g4 |a4 |^f4 |g2 ^f2 |g2 a2 |g4 |d4 |B4 |G4 |B4 |d4 |g12 |a4 |b4 |g4 |a4 |^f4 |g12 |d4 |
%W: B
% voice 1 (1 lines, 44 notes)
B2 c2 |B2 c2 |d2 c2 |d2 e2 |B4 |G4 |G4 |G4 |c2 d2 |c2 d2 |e2 d2 |e2 f2 |c4 |A4 |A4 |A4 |f2 g2 |f2 g2 |a2 g2 |a2 b2 |g4 |d4 |d4 |c4 |B2 A2 |G2 B2 |A4 |^F4 |G12 |d4 |
%W:
% voice 1 (1 lines, 43 notes)
B2 c2 |B2 c2 |d2 c2 |d2 e2 |B4 |G4 |G4 |G4 |c2 d2 |c2 d2 |e2 d2 |e2 f2 |c4 |A4 |A4 |A4 |f2 g2 |f2 g2 |a2 g2 |a2 b2 |g4 |d4 |d4 |c4 |B2 A2 |G2 B2 |A4 |^F4 |G12 |||
